X: 1
T:Dangerous Dougie Mackay
C:Bob Massie
H:1998
N:"Dangerous" Dougie is a Fortrose resident , known for his dangerous
N:habit of buying drinks when you're not looking.
M:4/4
L:1/4
Q:1/4=100     %Tempo
K:D
Ad/e/ f/d/A/F/ |D/F/A/d/ F/e/f |e/d/B/c/ d/B/A/F/ |D/F/ E3 |
F/G/A/B/ A/F/D/F/ |A/d/G/B/ d/B/A |F/D/G/A/ B/d/A/F/ |E/F/ D3 |
d/e/f/=f/ ^f/g/f/d/ |A/F/D/F/ A/d/f |e/d/g/f/ g/b/a/f/ |e/d/ e3 |
d/B/A/^G/ A/B/A/F/ |D/F/G/B/ D/B/A |F/D/G/B/ d/g/f/d/ |c/e/ d3 |
c/B/A/c/ e/c/B/c/ |A/F/E/e/ _e/=e/c |B/A/d/c/ d/f/e/c/ |B/A/ B3 |
c/d/e/f/ e/c/A/c/ |e/A/d/f/ A/f/e |c/A/d/e/ f/a/e/c/ |B/c/ A3 |
c/B/A/e/ _e/=e/c/A/ |E/A/E/e/ _e/=e/c |B/A/d/f/ a/f/e/c/ |B/A/ B3 |
a/f/e/c/ A/c/e/c/ |e/a/d/e/ f/d/e |c/A/d/f/ a/f/e/c/ |B/c/ A3 |]
% Output from ABC2Win  Version 2.1 h on 03/11/2001
